X:1
T:Blest Are the Contrite Hearts
T:Blest Are the Contrite Hearts
T:Copyright © 
Z:Copyright ©
%%score ( 1 2 ) ( 3 4 5 )
L:1/8
M:2/4
K:G
V:1 treble nm="SOPRANO ALTO" snm="S. A."
V:2 treble 
V:3 bass nm="TENOR BASS" snm="T. B."
V:4 bass 
V:5 bass 
V:1
"^Em" E2 BA | G2"^B7" F2 |"^Em" E4 | B2"^G" dc | B2"^D" A2 |"^G" B4 |"^Em" G2 FE |"^B" B2"^E" G2 |1 %8
"^Am" AG"^B" F2 | F2"^Em" BA | G2"^B7" F2 |"^Em" E4 |] %12
V:2
 E2 EE | E2 ^D2 | E4 | E2 DE | D2 D2 | D4 | B,2 B,B, | ^D2 E2 |1 EE ^D2 | ^D2 EE | E2 ^D2 | E4 |] %12
V:3
 x4 | x4 | x4 | x4 | x4 | x4 | x4 | x4 |1 %8
"^Copyright 2008 Hymnary.org. You may use this score in personal and corporate worship settings. Commercial use and republication are prohibited without written consent." x4 | %9
 x4 | x4 | E,,4 |] %12
V:4
 G,2 B,C | B,2 B,A, | G,4 | G,2 G,G, | G,2 F,2 | G,4 | G,2 A,G, | F,2 G,2 |1 CB, B,2 | B,2 B,C | %10
 B,2 B,A, | G,4 |] %12
V:5
 E,2 G,,A,, | B,,2 B,,B,, | E,4 | E,2 B,,C, | D,2 D,2 | G,,4 | E,2 ^D,E, | B,,2 E,2 |1 A,,E, B,,2 | %9
 B,,A,, G,,A,, | B,,2 B,,2 | E,4 |] %12

